source/img/logo/logo-header-desktop.svg

<svg width="147" height="40" viewBox="0 0 147 40" fill="none" xmlns="http://www.w3.org/2000/svg">
<path d="M72.1933 18.4249C72.1932 18.0921 72.3255 17.7726 72.562 17.5345C72.7985 17.2965 73.1204 17.1589 73.4588 17.1511H80.6703C85.7826 17.1511 89.1473 19.827 89.1473 24.211V24.2703C89.1473 29.069 85.0695 31.5573 80.2484 31.5573H74.7544V38.2913C74.7702 38.466 74.7488 38.6421 74.6916 38.8082C74.6344 38.9743 74.5426 39.1269 74.4222 39.2563C74.3017 39.3856 74.1552 39.489 73.992 39.5596C73.8287 39.6303 73.6522 39.6668 73.4738 39.6668C73.2954 39.6668 73.119 39.6303 72.9557 39.5596C72.7925 39.489 72.6459 39.3856 72.5255 39.2563C72.405 39.1269 72.3133 38.9743 72.2561 38.8082C72.1989 38.6421 72.1775 38.466 72.1933 38.2913V18.4249ZM80.3489 29.2863C84.0952 29.2863 86.556 27.3115 86.556 24.3493V24.29C86.556 21.1106 84.1354 19.4616 80.5297 19.4616H74.8047V29.2468L80.3489 29.2863Z" fill="white"/>
<path d="M94.0187 18.2669C94.0029 18.0922 94.0243 17.9162 94.0815 17.7501C94.1387 17.5839 94.2305 17.4313 94.3509 17.302C94.4714 17.1726 94.6179 17.0693 94.7812 16.9986C94.9444 16.9279 95.1209 16.8914 95.2993 16.8914C95.4777 16.8914 95.6541 16.9279 95.8174 16.9986C95.9807 17.0693 96.1272 17.1726 96.2476 17.302C96.3681 17.4313 96.4598 17.5839 96.517 17.7501C96.5742 17.9162 96.5956 18.0922 96.5799 18.2669V38.2913C96.5956 38.466 96.5742 38.642 96.517 38.8082C96.4598 38.9743 96.3681 39.1269 96.2476 39.2563C96.1272 39.3856 95.9807 39.489 95.8174 39.5596C95.6541 39.6303 95.4777 39.6668 95.2993 39.6668C95.1209 39.6668 94.9444 39.6303 94.7812 39.5596C94.6179 39.489 94.4714 39.3856 94.3509 39.2563C94.2305 39.1269 94.1387 38.9743 94.0815 38.8082C94.0243 38.642 94.0029 38.466 94.0187 38.2913V18.2669Z" fill="white"/>
<path d="M103.199 18.2965C103.206 17.9699 103.343 17.6588 103.579 17.4287C103.815 17.1986 104.132 17.0673 104.464 17.0623H104.816C105.077 17.0675 105.332 17.1372 105.559 17.2649C105.785 17.3925 105.975 17.5741 106.111 17.7929L119.862 35.0231V18.2373C119.862 17.9125 119.993 17.6011 120.226 17.3715C120.46 17.1419 120.777 17.0129 121.107 17.0129C121.437 17.0129 121.754 17.1419 121.988 17.3715C122.221 17.6011 122.352 17.9125 122.352 18.2373V38.3308C122.358 38.4836 122.332 38.6359 122.275 38.7784C122.219 38.9209 122.134 39.0506 122.025 39.1596C121.916 39.2687 121.785 39.3547 121.641 39.4125C121.497 39.4704 121.343 39.4987 121.187 39.496H121.057C120.79 39.4779 120.531 39.3989 120.301 39.2652C120.071 39.1314 119.876 38.9468 119.731 38.7258L105.67 21.0908V38.3308C105.667 38.6491 105.541 38.9544 105.317 39.184C105.093 39.4135 104.788 39.5499 104.464 39.5651C104.136 39.5599 103.823 39.4272 103.593 39.1961C103.363 38.9649 103.236 38.6539 103.239 38.3308V18.2965H103.199Z" fill="white"/>
<path d="M128.74 18.2669C128.724 18.0922 128.746 17.9162 128.803 17.7501C128.86 17.5839 128.952 17.4313 129.072 17.302C129.193 17.1726 129.339 17.0693 129.503 16.9986C129.666 16.9279 129.842 16.8914 130.021 16.8914C130.199 16.8914 130.376 16.9279 130.539 16.9986C130.702 17.0693 130.849 17.1726 130.969 17.302C131.09 17.4313 131.181 17.5839 131.238 17.7501C131.296 17.9162 131.317 18.0922 131.301 18.2669V30.4415L144.198 17.4375C144.462 17.1684 144.822 17.0094 145.202 16.9931C145.531 17.0057 145.842 17.1418 146.072 17.3732C146.302 17.6046 146.433 17.9139 146.437 18.2373C146.43 18.4054 146.389 18.5706 146.317 18.7231C146.245 18.8756 146.142 19.0125 146.016 19.1259L137.98 26.9461L146.648 37.3731C146.875 37.631 147 37.9604 147 38.3012C146.996 38.472 146.958 38.6402 146.887 38.7964C146.817 38.9525 146.716 39.0934 146.59 39.2109C146.464 39.3284 146.315 39.4202 146.153 39.481C145.991 39.5418 145.818 39.5703 145.644 39.5651C145.442 39.557 145.245 39.5006 145.07 39.4008C144.895 39.3011 144.747 39.1609 144.64 38.9924L136.183 28.6346L131.301 33.4333V38.2716C131.301 38.4363 131.268 38.5993 131.204 38.7515C131.14 38.9036 131.046 39.0419 130.928 39.1583C130.809 39.2747 130.669 39.3671 130.514 39.4301C130.359 39.4932 130.193 39.5256 130.026 39.5256C129.858 39.5256 129.692 39.4932 129.538 39.4301C129.383 39.3671 129.242 39.2747 129.124 39.1583C129.005 39.0419 128.911 38.9036 128.847 38.7515C128.783 38.5993 128.75 38.4363 128.75 38.2716V18.2669H128.74Z" fill="white"/>
<path d="M98.94 9.74563C97.9748 9.74563 97.0489 9.36936 96.3655 8.69932C95.682 8.02927 95.2967 7.12014 95.2941 6.17125C95.2941 7.11923 94.911 8.02839 94.2292 8.69872C93.5473 9.36905 92.6225 9.74563 91.6582 9.74563C92.6234 9.74825 93.5482 10.127 94.2298 10.7989C94.9113 11.4708 95.2941 12.381 95.2941 13.3299C95.2967 12.3801 95.6817 11.4699 96.3649 10.7983C97.048 10.1267 97.9739 9.74824 98.94 9.74563V9.74563Z" fill="#D22856"/>
<path d="M43.2871 19.0667C43.5382 19.0667 43.7793 19.0667 44.0203 19.0667C43.802 18.6988 43.4898 18.3933 43.1146 18.1803C42.7394 17.9673 42.3142 17.8542 41.881 17.8522C41.4628 17.8519 41.0552 17.7233 40.7149 17.4843C40.3746 17.2454 40.1186 16.908 39.9827 16.5192C39.259 16.7245 38.5562 16.9955 37.8835 17.3289H38.0744C38.6071 17.3289 39.1181 17.5369 39.4948 17.9073C39.8715 18.2776 40.0832 18.7799 40.0832 19.3037C40.0881 19.399 40.0881 19.4946 40.0832 19.59C41.1091 19.2225 42.1954 19.0451 43.2871 19.0667V19.0667Z" fill="white"/>
<path d="M60.7332 27.6472L55.5406 6.56621C55.179 4.24582 52.9291 0 46.9028 0C46.5033 0 46.1201 0.156044 45.8375 0.433804C45.555 0.711564 45.3962 1.08829 45.3962 1.4811C45.3962 1.87391 45.555 2.25063 45.8375 2.52839C46.1201 2.80615 46.5033 2.9622 46.9028 2.9622C51.7741 2.9622 52.4973 6.6452 52.5676 7.05003L57.3485 26.5018H55.2493C55.0321 24.805 54.4439 23.1744 53.525 21.7222C52.6061 20.2701 51.3783 19.0307 49.926 18.0892C49.4712 18.2774 49.0829 18.5932 48.8096 18.9971C48.5363 19.401 48.3901 19.8751 48.3893 20.3602C48.3948 20.4457 48.3948 20.5314 48.3893 20.6169C49.6107 21.4404 50.6131 22.5401 51.3122 23.8236C52.0113 25.1072 52.3867 26.537 52.4069 27.9928C52.4008 28.4894 52.3538 28.9847 52.2663 29.4739C51.9374 31.5714 50.8559 33.484 49.2173 34.8657C47.5786 36.2474 45.4911 37.007 43.3322 37.007C41.1734 37.007 39.0859 36.2474 37.4472 34.8657C35.8086 33.484 34.727 31.5714 34.3982 29.4739C34.3107 28.9847 34.2637 28.4894 34.2576 27.9928C34.2733 26.6229 34.5993 25.2737 35.2118 24.0432C34.7037 24.0081 34.2282 23.7847 33.8814 23.4181C33.5346 23.0515 33.3424 22.569 33.3436 22.0684C33.3453 21.889 33.277 21.7159 33.1528 21.5846C32.181 23.0752 31.5662 24.7633 31.3549 26.5215H29.4868C29.1663 23.6174 27.7658 20.9319 25.5542 18.9809C23.3427 17.0298 20.4759 15.9507 17.5044 15.9507C14.5329 15.9507 11.6662 17.0298 9.45463 18.9809C7.24307 20.9319 5.84259 23.6174 5.5221 26.5215H3.44302L8.23394 7.05003C8.29421 6.6452 9.0475 2.9622 13.8987 2.9622C14.2983 2.9622 14.6815 2.80615 14.964 2.52839C15.2465 2.25063 15.4053 1.87391 15.4053 1.4811C15.4053 1.08829 15.2465 0.711564 14.964 0.433804C14.6815 0.156044 14.2983 0 13.8987 0C7.87236 0 5.62254 4.24582 5.26096 6.56621L0.0582358 27.6472C-0.00612168 27.8617 -0.0173251 28.0883 0.0255611 28.308C0.0684473 28.5277 0.164178 28.7341 0.304759 28.91C0.44534 29.0859 0.62669 29.2262 0.833664 29.3191C1.04064 29.4121 1.26723 29.455 1.49451 29.4442H5.51206C5.59378 30.055 5.72135 30.659 5.89372 31.2512C5.95717 31.1429 5.99172 31.0206 5.99416 30.8957C5.99416 30.372 6.2058 29.8697 6.58252 29.4993C6.95923 29.129 7.47017 28.9209 8.00293 28.9209C8.16603 28.9231 8.32812 28.9463 8.48504 28.99C8.44128 28.6461 8.41781 28.2999 8.41473 27.9533C8.41742 27.4569 8.46109 26.9616 8.5453 26.4722C8.86708 24.3679 9.94626 22.4469 11.5867 21.0586C13.2271 19.6702 15.3198 18.9066 17.4843 18.9066C19.6489 18.9066 21.7416 19.6702 23.382 21.0586C25.0224 22.4469 26.1016 24.3679 26.4234 26.4722C26.5076 26.9616 26.5513 27.4569 26.554 27.9533C26.5382 30.3054 25.5807 32.5567 23.8889 34.2199C22.1971 35.8831 19.907 36.8243 17.5145 36.8399C15.5563 36.8663 13.6424 36.2668 12.0607 35.1317C11.6982 35.4411 11.235 35.6128 10.755 35.6155C10.5569 35.6181 10.3679 35.6973 10.2288 35.8359C10.0897 35.9745 10.0117 36.1613 10.0117 36.356C10.009 36.6321 9.94739 36.9046 9.83092 37.1558C11.9797 38.9066 14.6835 39.8636 17.4743 39.8613C20.4223 39.8738 23.2728 38.8236 25.4864 36.9095C27.7 34.9953 29.1232 32.35 29.4868 29.4739H31.3147C31.6456 32.3691 33.0499 35.0431 35.2593 36.9848C37.4688 38.9266 40.3285 40 43.2921 40C46.2557 40 49.1154 38.9266 51.3248 36.9848C53.5343 35.0431 54.9385 32.3691 55.2694 29.4739H59.2869C59.5191 29.4904 59.7519 29.4503 59.9647 29.3573C60.1774 29.2642 60.3635 29.121 60.5065 28.9404C60.6495 28.7598 60.7451 28.5473 60.7846 28.3217C60.8241 28.0961 60.8065 27.8645 60.7332 27.6472V27.6472Z" fill="white"/>
<path d="M50.9203 15.9169C50.3273 15.9182 49.7398 15.8045 49.1915 15.5822C48.6432 15.36 48.1448 15.0337 47.725 14.6219C47.3052 14.21 46.9721 13.7209 46.7448 13.1823C46.5176 12.6438 46.4006 12.0665 46.4006 11.4835C46.3979 12.6602 45.9206 13.7878 45.0733 14.619C44.2259 15.4501 43.0778 15.9169 41.8809 15.9169C43.0788 15.9195 44.2268 16.3885 45.0739 17.2212C45.9209 18.0539 46.3979 19.1825 46.4006 20.3602C46.4006 19.1817 46.8768 18.0516 47.7244 17.2183C48.572 16.385 49.7216 15.9169 50.9203 15.9169V15.9169Z" fill="#D22856"/>
<path d="M38.0744 19.3826C37.3418 19.3826 36.6393 19.0966 36.1213 18.5873C35.6033 18.0781 35.3123 17.3875 35.3123 16.6673C35.3123 17.3857 35.0227 18.0749 34.5069 18.5839C33.9911 19.0928 33.2911 19.38 32.5603 19.3826C33.2902 19.3826 33.9902 19.6677 34.5063 20.1751C35.0224 20.6824 35.3123 21.3706 35.3123 22.0881C35.315 21.3697 35.6072 20.6816 36.1249 20.1745C36.6426 19.6674 37.3436 19.3826 38.0744 19.3826V19.3826Z" fill="#D22856"/>
<path d="M10.785 33.6407C10.056 33.6355 9.35856 33.3471 8.84491 32.8384C8.33126 32.3298 8.04302 31.6421 8.04303 30.9253C8.04304 31.6438 7.75342 32.333 7.2376 32.8419C6.72178 33.3508 6.02182 33.6381 5.29102 33.6407C6.02182 33.6433 6.72178 33.9305 7.2376 34.4395C7.75342 34.9484 8.04304 35.6376 8.04303 36.356C8.04302 35.6393 8.33126 34.9516 8.84491 34.4429C9.35856 33.9343 10.056 33.6459 10.785 33.6407V33.6407Z" fill="#D22856"/>
</svg>

<svg xmlns="http://www.w3.org/2000/svg" width="147" height="40" fill="none"><path fill="#fff" d="M72.2 18.42c0-.33.13-.65.36-.89.24-.23.56-.37.9-.38h7.21c5.11 0 8.48 2.68 8.48 7.06v.06c0 4.8-4.08 7.29-8.9 7.29h-5.5v6.73a1.24 1.24 0 0 1-.33.97 1.29 1.29 0 0 1-1.46.3 1.29 1.29 0 0 1-.7-.75 1.24 1.24 0 0 1-.07-.52V18.42Zm8.15 10.87c3.75 0 6.2-1.98 6.2-4.94v-.06c0-3.18-2.41-4.83-6.02-4.83H74.8v9.79l5.55.04ZM94.02 18.27a1.24 1.24 0 0 1 .33-.97 1.29 1.29 0 0 1 .95-.4 1.3 1.3 0 0 1 .95.4 1.26 1.26 0 0 1 .33.97v20.02a1.25 1.25 0 0 1-.33.97 1.28 1.28 0 0 1-.95.4 1.3 1.3 0 0 1-.95-.4 1.26 1.26 0 0 1-.33-.97V18.27ZM103.2 18.3c0-.33.14-.64.38-.87.23-.23.55-.36.88-.37h.36a1.58 1.58 0 0 1 1.3.73l13.74 17.23V18.24c0-.33.13-.64.37-.87a1.26 1.26 0 0 1 1.76 0c.23.23.36.54.36.87v20.1a1.09 1.09 0 0 1-.32.82 1.15 1.15 0 0 1-.84.34h-.13a1.74 1.74 0 0 1-1.33-.77l-14.06-17.64v17.24c0 .32-.13.62-.35.85-.23.23-.53.37-.86.39-.32-.01-.64-.14-.87-.37a1.21 1.21 0 0 1-.35-.87V18.3h-.04ZM128.74 18.27a1.24 1.24 0 0 1 .33-.97 1.29 1.29 0 0 1 .95-.4 1.3 1.3 0 0 1 .95.4 1.25 1.25 0 0 1 .33.97v12.17l12.9-13a1.5 1.5 0 0 1 1-.45c.33.02.64.15.87.38.23.23.36.54.37.87a1.26 1.26 0 0 1-.42.89l-8.04 7.82 8.67 10.42c.22.26.35.59.35.93a1.27 1.27 0 0 1-.41.91 1.32 1.32 0 0 1-.95.36 1.26 1.26 0 0 1-1-.58l-8.46-10.36-4.88 4.8v4.84a1.24 1.24 0 0 1-.79 1.16 1.3 1.3 0 0 1-1.66-.68c-.07-.15-.1-.31-.1-.48v-20h-.01Z"/><path fill="#D22856" d="M98.94 9.75c-.97 0-1.9-.38-2.57-1.05a3.55 3.55 0 0 1-1.08-2.53c0 .95-.38 1.86-1.06 2.53a3.67 3.67 0 0 1-2.57 1.05c.96 0 1.89.38 2.57 1.05a3.55 3.55 0 0 1 1.06 2.53c0-.95.4-1.86 1.07-2.53a3.69 3.69 0 0 1 2.58-1.05Z"/><path fill="#fff" d="M43.29 19.07h.73a2.47 2.47 0 0 0-2.14-1.22 2.03 2.03 0 0 1-1.9-1.33c-.72.2-1.42.48-2.1.8h.2c.53 0 1.04.22 1.41.59.38.37.6.87.6 1.4v.28a8.98 8.98 0 0 1 3.2-.52Z"/><path fill="#fff" d="M60.73 27.65 55.54 6.57C55.18 4.25 52.93 0 46.9 0c-.4 0-.78.16-1.06.43a1.47 1.47 0 0 0 0 2.1c.28.28.66.43 1.06.43 4.87 0 5.6 3.69 5.67 4.09l4.78 19.45h-2.1a11.72 11.72 0 0 0-5.32-8.41 2.5 2.5 0 0 0-1.54 2.27 2 2 0 0 1 0 .26 9.15 9.15 0 0 1 4.02 7.37c0 .5-.06 1-.14 1.48a8.85 8.85 0 0 1-3.05 5.4 9.13 9.13 0 0 1-11.77 0 8.85 8.85 0 0 1-3.05-5.4 9.04 9.04 0 0 1-.14-1.48 9.1 9.1 0 0 1 .95-3.95c-.5-.03-.98-.26-1.33-.62a1.96 1.96 0 0 1-.54-1.35.7.7 0 0 0-.19-.49 11.57 11.57 0 0 0-1.8 4.94H29.5a11.78 11.78 0 0 0-3.94-7.54 12.17 12.17 0 0 0-16.1 0 11.78 11.78 0 0 0-3.93 7.54H3.44l4.8-19.47c.05-.4.8-4.09 5.66-4.09.4 0 .78-.15 1.06-.43a1.47 1.47 0 0 0 0-2.1A1.52 1.52 0 0 0 13.9 0C7.87 0 5.62 4.25 5.26 6.57L.06 27.65A1.38 1.38 0 0 0 .3 28.9a1.42 1.42 0 0 0 1.2.53H5.5c.08.61.21 1.22.38 1.81.07-.1.1-.23.1-.35A2.03 2.03 0 0 1 8.5 29a8.84 8.84 0 0 1 .06-2.53 8.85 8.85 0 0 1 3.04-5.41 9.13 9.13 0 0 1 11.8 0 8.85 8.85 0 0 1 3.03 5.41 8.87 8.87 0 0 1-2.53 7.75 9.18 9.18 0 0 1-6.38 2.62 9.15 9.15 0 0 1-5.45-1.7c-.36.3-.83.47-1.3.48-.2 0-.4.08-.53.22a.73.73 0 0 0-.22.52c0 .27-.06.54-.18.8a12.09 12.09 0 0 0 7.64 2.7c2.95.01 5.8-1.04 8.02-2.95a11.79 11.79 0 0 0 4-7.44h1.82c.34 2.9 1.74 5.57 3.95 7.51a12.17 12.17 0 0 0 16.06 0 11.78 11.78 0 0 0 3.95-7.5h4.02a1.44 1.44 0 0 0 1.22-.54 1.38 1.38 0 0 0 .22-1.3Z"/><path fill="#D22856" d="M50.92 15.92a4.58 4.58 0 0 1-4.18-2.74 4.37 4.37 0 0 1-.34-1.7 4.4 4.4 0 0 1-1.33 3.14c-.84.83-2 1.3-3.19 1.3 1.2 0 2.35.47 3.2 1.3a4.42 4.42 0 0 1 1.32 3.14c0-1.18.48-2.3 1.32-3.14.85-.83 2-1.3 3.2-1.3ZM38.07 19.38c-.73 0-1.43-.28-1.95-.8a2.7 2.7 0 0 1-.8-1.91c0 .72-.3 1.4-.81 1.91-.52.51-1.22.8-1.95.8.73 0 1.43.29 1.95.8.51.5.8 1.2.8 1.9 0-.71.3-1.4.81-1.9.52-.51 1.22-.8 1.95-.8ZM10.79 33.64c-.73 0-1.43-.3-1.95-.8a2.7 2.7 0 0 1-.8-1.91c0 .71-.29 1.4-.8 1.91-.52.51-1.22.8-1.95.8.73 0 1.43.3 1.95.8.51.5.8 1.2.8 1.92 0-.72.3-1.4.8-1.92.52-.5 1.22-.8 1.95-.8Z"/></svg>
